pointercrate-demonlist-pages/static/images/flags/kr/46.svg

<?xml version="1.0" encoding="UTF-8"?>
<svg xmlns="http://www.w3.org/2000/svg" xmlns:xlink="http://www.w3.org/1999/xlink" width="251pt" height="253pt" viewBox="0 0 251 253" version="1.1">
<g id="surface1">
<path style=" stroke:none;fill-rule:nonzero;fill:rgb(95.686275%,48.235294%,21.176471%);fill-opacity:1;" d="M 157.863281 63.609375 C 157.863281 45.691406 143.285156 31.121094 125.28125 31.121094 C 107.328125 31.121094 92.722656 45.691406 92.722656 63.609375 C 92.722656 81.507812 107.328125 96.058594 125.28125 96.058594 C 143.285156 96.058594 157.863281 81.507812 157.863281 63.609375 "/>
<path style=" stroke:none;fill-rule:nonzero;fill:rgb(0%,45.882353%,73.72549%);fill-opacity:1;" d="M 191.554688 189.421875 C 191.554688 189.421875 161.070312 192.15625 122.707031 166.78125 C 100.167969 151.863281 92.605469 147.394531 87.902344 144.800781 C 81.304688 141.171875 71.886719 137.699219 61.082031 138.25 C 44.761719 139.070312 31.488281 151.449219 31.488281 167.734375 C 31.488281 184.027344 44.734375 197.234375 61.082031 197.234375 C 75.566406 197.234375 87.597656 186.84375 90.132812 173.144531 L 90.355469 172.304688 C 90.457031 171.871094 90.957031 170.578125 92.359375 170.632812 C 93.828125 170.699219 95.792969 172.828125 100.957031 176.785156 L 106.085938 180.90625 C 147.898438 215.664062 181.585938 219.785156 188.257812 220.648438 C 191.832031 221.105469 221.097656 225.167969 251.125 212.355469 L 251.125 161.59375 C 242.453125 173.71875 216.84375 188.433594 191.554688 189.421875 "/>
<path style=" stroke:none;fill-rule:nonzero;fill:rgb(0%,59.215686%,37.254902%);fill-opacity:1;" d="M 220.628906 102.835938 C 220.472656 102.0625 219.847656 101.464844 219.066406 101.34375 C 218.457031 101.316406 217.855469 101.277344 217.222656 101.269531 C 200.863281 101.050781 183.730469 101.015625 171.234375 113.472656 C 162.664062 122.015625 157.949219 132.929688 157.011719 144.097656 L 157.011719 144.128906 C 157.011719 144.898438 157.46875 145.550781 158.125 145.84375 L 158.125 145.851562 C 162.460938 147.757812 168.296875 149.414062 174.421875 148.457031 C 181.460938 147.355469 189.019531 143.296875 194.179688 135.726562 C 194.449219 135.40625 195.375 134.507812 196.628906 135.058594 C 197.589844 135.492188 197.859375 136.40625 197.648438 137.441406 C 197.402344 138.199219 197.011719 138.949219 196.636719 139.503906 C 190.453125 148.632812 184.210938 153.269531 175.339844 154.648438 C 173.769531 154.875 172.238281 154.992188 170.71875 154.992188 C 163.21875 154.992188 156.589844 152.285156 152.253906 149.949219 C 142.742188 145.800781 126.511719 133.269531 126.511719 133.269531 C 96.550781 109.128906 71.113281 104.921875 70.28125 104.769531 C 41.410156 99.113281 18.722656 104.972656 0 116.4375 L 0 134.886719 C 17.035156 120.261719 39.289062 111.714844 68.558594 116.472656 C 68.558594 116.472656 92.097656 119.136719 120.695312 140.636719 C 145.5 159.835938 160.152344 163.101562 160.152344 163.101562 C 176.78125 167.785156 194.824219 163.605469 207.910156 150.570312 C 220.394531 138.121094 220.945312 120.75 220.722656 104.753906 C 220.714844 104.09375 220.667969 103.464844 220.628906 102.835938 "/>
<path style=" stroke:none;fill-rule:nonzero;fill:rgb(100%,84.313725%,14.901961%);fill-opacity:1;" d="M 125.28125 96.058594 C 107.324219 96.058594 92.722656 81.503906 92.722656 63.609375 C 92.722656 45.691406 107.324219 31.121094 125.28125 31.121094 C 143.285156 31.121094 157.867188 45.691406 157.867188 63.609375 C 157.867188 81.503906 143.285156 96.058594 125.28125 96.058594 M 61.085938 138.25 C 71.886719 137.699219 81.308594 141.171875 87.90625 144.800781 C 92.609375 147.390625 100.164062 151.863281 122.710938 166.777344 C 161.070312 192.15625 191.554688 189.417969 191.554688 189.417969 C 216.84375 188.4375 242.453125 173.71875 251.128906 161.59375 L 251.128906 0 L 0.00390625 0 L 0.00390625 116.433594 C 18.722656 104.972656 41.414062 99.113281 70.277344 104.773438 C 71.113281 104.921875 96.546875 109.128906 126.511719 133.273438 C 126.511719 133.273438 142.746094 145.800781 152.253906 149.949219 C 156.589844 152.285156 163.21875 154.992188 170.722656 154.992188 C 172.238281 154.992188 173.769531 154.878906 175.34375 154.648438 C 184.214844 153.273438 190.457031 148.636719 196.632812 139.507812 C 197.015625 138.953125 197.402344 138.199219 197.652344 137.441406 C 197.859375 136.40625 197.589844 135.492188 196.625 135.058594 C 195.375 134.507812 194.453125 135.40625 194.179688 135.730469 C 189.019531 143.300781 181.464844 147.355469 174.421875 148.457031 C 168.300781 149.414062 162.457031 147.757812 158.121094 145.847656 L 158.121094 145.839844 C 157.46875 145.550781 157.011719 144.898438 157.011719 144.128906 L 157.011719 144.101562 C 157.945312 132.929688 162.664062 122.019531 171.234375 113.476562 C 183.734375 101.011719 200.863281 101.050781 217.222656 101.273438 C 217.855469 101.28125 218.457031 101.316406 219.070312 101.34375 C 219.847656 101.464844 220.46875 102.066406 220.628906 102.835938 C 220.664062 103.464844 220.714844 104.09375 220.722656 104.757812 C 220.945312 120.75 220.394531 138.121094 207.910156 150.570312 C 194.820312 163.609375 176.78125 167.785156 160.152344 163.097656 C 160.152344 163.097656 145.5 159.832031 120.691406 140.632812 C 92.097656 119.136719 68.558594 116.476562 68.558594 116.476562 C 39.292969 111.714844 17.035156 120.261719 0.00390625 134.886719 L 0.00390625 252.660156 L 251.128906 252.660156 L 251.128906 212.355469 C 221.09375 225.171875 191.835938 221.105469 188.253906 220.648438 C 181.589844 219.785156 147.898438 215.664062 106.085938 180.90625 L 100.953125 176.785156 C 95.796875 172.828125 93.828125 170.699219 92.359375 170.636719 C 90.960938 170.578125 90.457031 171.867188 90.355469 172.308594 L 90.136719 173.140625 C 87.601562 186.839844 75.566406 197.234375 61.085938 197.234375 C 44.738281 197.234375 31.488281 184.027344 31.488281 167.738281 C 31.488281 151.449219 44.761719 139.070312 61.085938 138.25 "/>
</g>
</svg>

<?xml version="1.0" encoding="UTF-8"?>
<svg width="251pt" height="253pt" version="1.1" viewBox="0 0 251 253" xmlns="http://www.w3.org/2000/svg">
 <g id="surface1">
  <path d="m157.86 63.609c0-17.918-14.578-32.488-32.582-32.488-17.953 0-32.559 14.57-32.559 32.488 0 17.898 14.605 32.449 32.559 32.449 18.004 0 32.582-14.551 32.582-32.449" fill="#f47a36"/>
  <path d="m191.55 189.42s-30.484 2.7344-68.848-22.641c-22.539-14.918-30.102-19.387-34.805-21.98-6.5977-3.6289-16.016-7.1016-26.82-6.5508-16.32 0.82031-29.594 13.199-29.594 29.484 0 16.293 13.246 29.5 29.594 29.5 14.484 0 26.516-10.391 29.051-24.09l0.22266-0.83984c0.10156-0.43359 0.60156-1.7266 2.0039-1.6719 1.4688 0.066407 3.4336 2.1953 8.5977 6.1523l5.1289 4.1211c41.812 34.758 75.5 38.879 82.172 39.742 3.5742 0.45703 32.84 4.5195 62.867-8.293v-50.762c-8.6719 12.125-34.281 26.84-59.57 27.828" fill="#0075bb"/>
  <path d="m220.63 102.84c-0.15625-0.77344-0.78125-1.3711-1.5625-1.4922-0.60938-0.027344-1.2109-0.066406-1.8438-0.074219-16.359-0.21875-33.492-0.25391-45.988 12.203-8.5703 8.543-13.285 19.457-14.223 30.625v0.03125c0 0.76953 0.45703 1.4219 1.1133 1.7148v0.007812c4.3359 1.9062 10.172 3.5625 16.297 2.6055 7.0391-1.1016 14.598-5.1602 19.758-12.73 0.26953-0.32031 1.1953-1.2188 2.4492-0.66797 0.96094 0.43359 1.2305 1.3477 1.0195 2.3828-0.24609 0.75781-0.63672 1.5078-1.0117 2.0625-6.1836 9.1289-12.426 13.766-21.297 15.145-1.5703 0.22656-3.1016 0.34375-4.6211 0.34375-7.5 0-14.129-2.707-18.465-5.043-9.5117-4.1484-25.742-16.68-25.742-16.68-29.961-24.141-55.398-28.348-56.23-28.5-28.871-5.6562-51.559 0.20312-70.281 11.668v18.449c17.035-14.625 39.289-23.172 68.559-18.414 0 0 23.539 2.6641 52.137 24.164 24.805 19.199 39.457 22.465 39.457 22.465 16.629 4.6836 34.672 0.50391 47.758-12.531 12.484-12.449 13.035-29.82 12.812-45.816-0.007812-0.66016-0.054687-1.2891-0.09375-1.918" fill="#00965f"/>
  <path d="m125.28 96.059c-17.957 0-32.559-14.555-32.559-32.449 0-17.918 14.602-32.488 32.559-32.488 18.004 0 32.586 14.57 32.586 32.488 0 17.895-14.582 32.449-32.586 32.449m-64.195 42.191c10.801-0.55078 20.223 2.9219 26.82 6.5508 4.7031 2.5898 12.258 7.0625 34.805 21.977 38.359 25.379 68.844 22.641 68.844 22.641 25.289-0.98047 50.898-15.699 59.574-27.824v-161.59h-251.12v116.43c18.719-11.461 41.41-17.32 70.273-11.66 0.83594 0.14844 26.27 4.3555 56.234 28.5 0 0 16.234 12.527 25.742 16.676 4.3359 2.3359 10.965 5.043 18.469 5.043 1.5156 0 3.0469-0.11328 4.6211-0.34375 8.8711-1.375 15.113-6.0117 21.289-15.141 0.38281-0.55469 0.76953-1.3086 1.0195-2.0664 0.20703-1.0352-0.0625-1.9492-1.0273-2.3828-1.25-0.55078-2.1719 0.34766-2.4453 0.67188-5.1602 7.5703-12.715 11.625-19.758 12.727-6.1211 0.95703-11.965-0.69922-16.301-2.6094v-0.007812c-0.65234-0.28906-1.1094-0.94141-1.1094-1.7109v-0.027344c0.93359-11.172 5.6523-22.082 14.223-30.625 12.5-12.465 29.629-12.426 45.988-12.203 0.63281 0.007812 1.2344 0.042968 1.8477 0.070312 0.77734 0.12109 1.3984 0.72266 1.5586 1.4922 0.035156 0.62891 0.085938 1.2578 0.09375 1.9219 0.22266 15.992-0.32812 33.363-12.812 45.812-13.09 13.039-31.129 17.215-47.758 12.527 0 0-14.652-3.2656-39.461-22.465-28.594-21.496-52.133-24.156-52.133-24.156-29.266-4.7617-51.523 3.7852-68.555 18.41v117.77h251.12v-40.305c-30.035 12.816-59.293 8.75-62.875 8.293-6.6641-0.86328-40.355-4.9844-82.168-39.742l-5.1328-4.1211c-5.1562-3.957-7.125-6.0859-8.5938-6.1484-1.3984-0.058594-1.9023 1.2305-2.0039 1.6719l-0.21875 0.83203c-2.5352 13.699-14.57 24.094-29.051 24.094-16.348 0-29.598-13.207-29.598-29.496 0-16.289 13.273-28.668 29.598-29.488" fill="#ffd626"/>
 </g>
</svg>
